static/assets/images/partner/smec.svg

<svg height="77" viewBox="0 0 180 77" width="180" xmlns="http://www.w3.org/2000/svg" xmlns:xlink="http://www.w3.org/1999/xlink"><mask id="a" fill="#fff"/><mask id="b" fill="#fff"><path d="m.01675472.21067763h147.94443028v23.55420647h-147.94443028z" fill="#fff" fill-rule="evenodd"/></mask><g fill="none" fill-rule="nonzero"><path d="m101.944913 17.1493827c-.399041 1.3838135-1.022875 2.4005499-1.871502 3.0507688-.8486261.6499391-1.9717506.9753283-3.3693733.9753283-2.1962641 0-3.8935169-.8502647-5.0917585-2.5507941-1.3476377-1.9005752-2.0214566-4.1757817-2.0214566-6.8267385 0-2.73405286.698951-4.97624477 2.0962944-6.72685556 1.214717-1.53349811 2.9038717-2.30038706 5.0669056-2.30038706 1.9463397 0 3.3277664.64182534 4.1431624 1.92547601.382287.61692453.70677 1.49209003.973449 2.62577628l2.545321-.80018329c-.831593-4.10135902-3.344521-6.15189865-7.5371097-6.15189865-3.3612755 0-5.9738944 1.29204421-7.8367396 3.87613262-1.4643623 2.03403234-2.1968227 4.60972722-2.1968227 7.72708465 0 3.4343531.9234642 6.2512221 2.7706717 8.4522857 1.763434 2.1009008 4.1012755 3.1506517 7.0132453 3.1506517 2.4459094 0 4.384151-.7000204 5.815283-2.100621.815117-.7833962 1.488936-1.9417035 2.021457-3.4757612zm-37.1678262-6.9518021c.1996604-2.41705715.8944226-4.27174772 2.0840075-5.56407171 1.1895849-1.29176442 2.7991548-1.9380663 4.829268-1.9380663 2.3629735 0 4.0764226.89223234 5.1417434 2.67585768.7319018 1.23384906 1.1063698 2.84232938 1.1231245 4.82628033zm15.2124453-4.18865176c-.4911925-1.52538437-1.3440076-2.78805121-2.5587246-3.78856011-1.5640528-1.25035633-3.4606867-1.87539461-5.6904603-1.87539461-2.8787397 0-5.2079246 1.04191699-6.9883925 3.12575095-1.8963547 2.2172911-2.8449509 5.05150674-2.8449509 8.50236713 0 3.6008248 1.0228754 6.4851218 3.0697434 8.6523315 1.8472075 1.9671639 4.2344754 2.9506059 7.1632 2.9506059 1.8469283 0 3.4855396-.446256 4.9169509-1.3379288 1.4305736-.891393 2.5869283-2.1795202 3.4693434-3.8635423l-2.3464981-1.3502394c-.7989208 1.5002038-1.6595547 2.5717779-2.5832981 3.2130437-.9234642.6423849-2.0675321.9632976-3.4316453.9632976-2.5458792 0-4.5173509-1.0668178-5.9152528-3.201013-.9485963-1.4504021-1.4892151-3.2841089-1.6224151-5.5014h16.0733585c.0161962-2.80092125-.2206038-4.96393419-.7109585-6.48931856zm-33.7613132-5.63905391c-3.0122189 0-5.4746038 1.14207979-7.3879925 3.42595957-1.3973434-2.28387978-3.5028528-3.42595957-6.3142943-3.42595957-2.4796981 0-4.6921585.99211537-6.6390566 2.97578653v-2.50043289h-2.4710415v22.25600703h2.4710415v-14.92929382c0-1.6501682.5696603-2.96711321 1.7092603-3.95111483 1.1398793-.98316226 2.6748906-1.47530296 4.605034-1.47530296 1.8134189 0 3.1448604.43758275 3.9934868 1.31302803.8486264.8751655 1.2730792 2.24666847 1.2730792 4.11338976v14.92929382h2.4704831v-14.92929382c0-1.73354394.5406188-3.07147278 1.6226943-4.01322696 1.0812377-.94175417 2.6117811-1.41319083 4.5924679-1.41319083 3.5600981 0 5.3408453 1.80908571 5.3408453 5.42641779v14.92929382h2.4710415v-15.20432185c0-2.36697574-.6824754-4.21355256-2.0465887-5.53889111-1.3646717-1.32561833-3.2613056-1.98814771-5.6904603-1.98814771zm-33.9489661 10.86542587c-.6157358-.2915353-1.5724302-.6289552-2.87008299-1.0128194-1.8469283-.55005606-3.10325283-1.10011213-3.76841509-1.65016819-.66572076-.55033585-.99858114-1.32561833-.99858114-2.32584744 0-1.01645661.33286038-1.8504938.99858114-2.50071267.71514717-.68323342 1.71344905-1.02512992 2.99490566-1.02512992 1.43057362 0 2.53722262.43366577 3.31938872 1.30043774.3822867.43366576.7402792 1.08388463 1.0728603 1.95037682l2.1219849-2.00045823c-1.5143471-2.40054986-3.6773811-3.60110458-6.48938109-3.60110458-1.89691321 0-3.48163019.58782696-4.75470944 1.76320108-1.2728 1.17537412-1.90947924 2.62997305-1.90947924 4.36351698 0 1.55056496.50766792 2.8258221 1.52244528 3.82605121.44958491.4336658.97763774.7962663 1.58527547 1.0875218.60707925.2920949 1.60091321.6546955 2.98261887 1.0880814 1.96281505.6169246 3.24818115 1.1879645 3.85581885 1.7128399.6073585.5251553.9111774 1.3298151.9111774 2.4128604 0 1.3342917-.4702491 2.4349634-1.4101887 3.300896-.9404981.8670517-2.12589434 1.3007175-3.55646793 1.3007175-2.74581886 0-4.5343849-1.6336609-5.36597735-4.9015423l-2.52102642 1.3754199c.84862642 2.0843935 1.88434717 3.5848771 3.10716226 4.5014507 1.22309434.9165736 2.78267925 1.3751401 4.6798717 1.3751401 2.22921514 0 4.06832454-.7000204 5.51565284-2.100621 1.4638038-1.416828 2.1962641-3.1089639 2.1962641-5.0761277 0-1.6669553-.5325207-3.0171946-1.597283-4.0512777-.4657811-.4498932-1.0066792-.8206075-1.6224151-1.1127024z" fill="#000206" mask="url(#a)" transform="translate(16 27)"/><path d="m116.587698.21067763h29.443064c1.066159 0 1.930423.86173585 1.930423 1.92407709v19.72283938c0 1.0623412-.864264 1.9240771-1.930423 1.9240771h-29.443064c-1.066438 0-1.930702-.8617359-1.930702-1.9240771v-19.72283938c0-1.06234124.864264-1.92407709 1.930702-1.92407709" fill="#ceb265" mask="url(#b)" transform="translate(16 27)"/></g></svg>

<?xml version="1.0" encoding="UTF-8"?>
<svg width="180px" height="77px" viewBox="0 0 180 77" version="1.1" xmlns="http://www.w3.org/2000/svg" xmlns:xlink="http://www.w3.org/1999/xlink">
    <!-- Generator: Sketch 51.3 (57544) - http://www.bohemiancoding.com/sketch -->
    <title>Artboard</title>
    <desc>Created with Sketch.</desc>
    <defs>
        <polygon id="path-1" points="0.016754717 0.210677628 147.961185 0.210677628 147.961185 23.7648841 0.016754717 23.7648841"></polygon>
        <polygon id="path-3" points="0.016754717 0.210677628 147.961185 0.210677628 147.961185 23.7648841 0.016754717 23.7648841"></polygon>
    </defs>
    <g id="Artboard" stroke="none" stroke-width="1" fill="none" fill-rule="evenodd">
        <g id="smec" transform="translate(16.000000, 27.000000)">
            <g id="Fill-1-Clipped">
                <mask id="mask-2" fill="white">
                    <use xlink:href="#path-1"></use>
                </mask>
                <g id="path-1"></g>
                <path d="M101.944913,17.1493827 C101.545872,18.5331962 100.922038,19.5499326 100.073411,20.2001515 C99.2247849,20.8500906 98.1016604,21.1754798 96.7040377,21.1754798 C94.5077736,21.1754798 92.8105208,20.3252151 91.6122792,18.6246857 C90.2646415,16.7241105 89.5908226,14.448904 89.5908226,11.7979472 C89.5908226,9.06389434 90.2897736,6.82170243 91.687117,5.07109164 C92.901834,3.53759353 94.5909887,2.77070458 96.7540226,2.77070458 C98.7003623,2.77070458 100.081789,3.41252992 100.897185,4.69618059 C101.279472,5.31310512 101.603955,6.18827062 101.870634,7.32195687 L104.415955,6.52177358 C103.584362,2.42041456 101.071434,0.369874933 96.8788453,0.369874933 C93.5175698,0.369874933 90.9049509,1.66191914 89.0421057,4.24600755 C87.5777434,6.28003989 86.845283,8.85573477 86.845283,11.9730922 C86.845283,15.4074453 87.7687472,18.2243143 89.6159547,20.4253779 C91.3793887,22.5262787 93.7172302,23.5760296 96.6292,23.5760296 C99.0751094,23.5760296 101.013351,22.8760092 102.444483,21.4754086 C103.2596,20.6920124 103.933419,19.5337051 104.46594,17.9996474 L101.944913,17.1493827 Z M64.7770868,10.1975806 C64.9767472,7.78052345 65.6715094,5.92583288 66.8610943,4.63350889 C68.0506792,3.34174447 69.6602491,2.69544259 71.6903623,2.69544259 C74.0533358,2.69544259 75.7667849,3.58767493 76.8321057,5.37130027 C77.5640075,6.60514933 77.9384755,8.21362965 77.9552302,10.1975806 L64.7770868,10.1975806 Z M79.9895321,6.00892884 C79.4983396,4.48354447 78.6455245,3.22087763 77.4308075,2.22036873 C75.8667547,0.970012399 73.9701208,0.344974124 71.7403472,0.344974124 C68.8616075,0.344974124 66.5324226,1.38689111 64.7519547,3.47072507 C62.8556,5.68801617 61.9070038,8.52223181 61.9070038,11.9730922 C61.9070038,15.573917 62.9298792,18.458214 64.9767472,20.6254237 C66.8239547,22.5925876 69.2112226,23.5760296 72.1399472,23.5760296 C73.9868755,23.5760296 75.6254868,23.1297736 77.0568981,22.2381008 C78.4874717,21.3467078 79.6438264,20.0585806 80.5262415,18.3745585 L78.1797434,17.0243191 C77.3808226,18.5245229 76.5201887,19.596097 75.5964453,20.2373628 C74.6729811,20.8797477 73.5289132,21.2006604 72.1648,21.2006604 C69.6189208,21.2006604 67.6474491,20.1338426 66.2495472,17.9996474 C65.3009509,16.5492453 64.7603321,14.7155385 64.6271321,12.4982474 L80.7004906,12.4982474 C80.7166868,9.69732615 80.4798868,7.53431321 79.9895321,6.00892884 Z M46.2282189,0.369874933 C43.216,0.369874933 40.7536151,1.51195472 38.8402264,3.7958345 C37.442883,1.51195472 35.3373736,0.369874933 32.5259321,0.369874933 C30.046234,0.369874933 27.8337736,1.3619903 25.8868755,3.34566146 L25.8868755,0.845228571 L23.415834,0.845228571 L23.415834,23.1012356 L25.8868755,23.1012356 L25.8868755,8.17194178 C25.8868755,6.52177358 26.4565358,5.20482857 27.5961358,4.22082695 C28.7360151,3.23766469 30.2710264,2.74552399 32.2011698,2.74552399 C34.0145887,2.74552399 35.3460302,3.18310674 36.1946566,4.05855202 C37.043283,4.93371752 37.4677358,6.30522049 37.4677358,8.17194178 L37.4677358,23.1012356 L39.9382189,23.1012356 L39.9382189,8.17194178 C39.9382189,6.43839784 40.4788377,5.100469 41.5609132,4.15871482 C42.6421509,3.21696065 44.1726943,2.74552399 46.1533811,2.74552399 C49.7134792,2.74552399 51.4942264,4.5546097 51.4942264,8.17194178 L51.4942264,23.1012356 L53.9652679,23.1012356 L53.9652679,7.89691375 C53.9652679,5.52993801 53.2827925,3.68336119 51.9186792,2.35802264 C50.5540075,1.03240431 48.6573736,0.369874933 46.2282189,0.369874933 Z M12.2792528,11.2353008 C11.663517,10.9437655 10.7068226,10.6063456 9.40916981,10.2224814 C7.56224151,9.67242534 6.30591698,9.12236927 5.64075472,8.57231321 C4.97503396,8.02197736 4.64217358,7.24669488 4.64217358,6.24646577 C4.64217358,5.23000916 4.97503396,4.39597197 5.64075472,3.7457531 C6.35590189,3.06251968 7.35420377,2.72062318 8.63566038,2.72062318 C10.066234,2.72062318 11.172883,3.15428895 11.9550491,4.02106092 C12.3373358,4.45472668 12.6953283,5.10494555 13.0279094,5.97143774 L15.1498943,3.97097951 C13.6355472,1.57042965 11.4725132,0.369874933 8.66051321,0.369874933 C6.7636,0.369874933 5.17888302,0.957701887 3.90580377,2.13307601 C2.63300377,3.30845013 1.99632453,4.76304906 1.99632453,6.49659299 C1.99632453,8.04715795 2.50399245,9.32241509 3.51876981,10.3226442 C3.96835472,10.75631 4.49640755,11.1189105 5.10404528,11.410166 C5.71112453,11.7022609 6.70495849,12.0648615 8.08666415,12.4982474 C10.0494792,13.115172 11.3348453,13.6862119 11.942483,14.2110873 C12.5498415,14.7362426 12.8536604,15.5409024 12.8536604,16.6239477 C12.8536604,17.9582394 12.3834113,19.0589111 11.4434717,19.9248437 C10.5029736,20.7918954 9.31757736,21.2255612 7.88700377,21.2255612 C5.14118491,21.2255612 3.35261887,19.5919003 2.52102642,16.3240189 L0,17.6994388 C0.848626415,19.7838323 1.88434717,21.2843159 3.10716226,22.2008895 C4.3302566,23.1174631 5.88984151,23.5760296 7.78703396,23.5760296 C10.0162491,23.5760296 11.8553585,22.8760092 13.3026868,21.4754086 C14.7664906,20.0585806 15.4989509,18.3664447 15.4989509,16.3992809 C15.4989509,14.7323256 14.9664302,13.3820863 13.9016679,12.3480032 C13.4358868,11.89811 12.8949887,11.5273957 12.2792528,11.2353008 Z" id="Fill-1" fill="#000206" fill-rule="nonzero" mask="url(#mask-2)"></path>
            </g>
            <g id="Fill-3-Clipped">
                <mask id="mask-4" fill="white">
                    <use xlink:href="#path-3"></use>
                </mask>
                <g id="path-1"></g>
                <path d="M116.587698,0.210677628 L146.030762,0.210677628 C147.096921,0.210677628 147.961185,1.07241348 147.961185,2.13475472 L147.961185,21.8575941 C147.961185,22.9199353 147.096921,23.7816712 146.030762,23.7816712 L116.587698,23.7816712 C115.52126,23.7816712 114.656996,22.9199353 114.656996,21.8575941 L114.656996,2.13475472 C114.656996,1.07241348 115.52126,0.210677628 116.587698,0.210677628" id="Fill-3" fill="#CEB265" fill-rule="nonzero" mask="url(#mask-4)"></path>
            </g>
        </g>
    </g>
</svg>
